X:7
T:Waltzing Matilda
M:4/4
L:1/8
L:1/8
Z: Contributed 2015-11-21 17:28:43 by Gill Aldous gill.aldous@sky.com
K:G
P:Waltzing Matilda
|:B2B2 A2A2|G>AB>G E>FG2|D2G>B d2d>d|e2d>B A2G>A|\
B2B2 A2A2|G>AB>G E>FG2|D2G>B d2c>B|A2A2 G4:|
|:d2d>d d2B2|g2g>g f2e2|d2d>d e2d>d|d2c>B A2G>A|\
B2B2 A2A2|G>AB>G E>FG2|D2G>B d2c>B|A2A2 G4:|




